src/images/koshel.svg

<svg width="100" height="100" xmlns="http://www.w3.org/2000/svg" xmlns:svg="http://www.w3.org/2000/svg" xmlns:xlink="http://www.w3.org/1999/xlink" preserveAspectRatio="xMidYMid meet">
    <defs>
        <path id="a38aFBteH" d="m311.6,0.02l0.26,0.01l0.26,0.02l0.26,0.03l0.26,0.03l0.25,0.04l0.26,0.05l0.25,0.05l0.25,0.06l0.25,0.06l0.25,0.07l0.25,0.08l0.24,0.09l0.24,0.09l0.24,0.1l0.24,0.1l0.24,0.11l0.24,0.11l0.24,0.12l0.23,0.12l0.24,0.13l0.23,0.13l0.24,0.13l0.23,0.14l0.23,0.14l0.23,0.15l0.22,0.15l0.23,0.16l0.22,0.16l0.22,0.16l0.21,0.17l0.22,0.17l0.2,0.17l0.21,0.18l0.2,0.18l0.2,0.19l0.19,0.19l0.2,0.19l0.18,0.19l0.18,0.2l0.18,0.2l0.17,0.21l0.17,0.21l0.16,0.21l0.16,0.21l0.15,0.22l0.14,0.22l0.14,0.23l0.13,0.22l0.13,0.23l0.12,0.23l0.11,0.23l0.11,0.24l0.1,0.24l11.52,23.04l31.36,-7.68l0.24,-0.05l0.24,-0.04l0.25,-0.03l0.25,-0.03l0.25,-0.03l0.25,-0.02l0.25,-0.02l0.26,-0.01l0.25,-0.01l0.26,0l0.26,0l0.26,0.01l0.26,0.01l0.26,0.02l0.26,0.02l0.27,0.03l0.26,0.03l0.26,0.03l0.27,0.04l0.26,0.05l0.26,0.05l0.27,0.06l0.26,0.06l0.26,0.06l0.27,0.07l0.26,0.07l0.26,0.08l0.26,0.09l0.26,0.09l0.26,0.09l0.26,0.1l0.25,0.1l0.26,0.11l0.25,0.11l0.25,0.12l0.25,0.12l0.25,0.13l0.25,0.13l0.24,0.14l0.24,0.14l0.24,0.15l0.23,0.15l0.23,0.15l0.22,0.16l0.22,0.17l0.21,0.17l0.21,0.17l0.21,0.18l0.2,0.18l0.19,0.19l0.19,0.19l0.18,0.2l0.18,0.2l0.18,0.2l0.17,0.21l0.17,0.21l0.16,0.21l0.15,0.22l0.15,0.22l0.15,0.23l0.14,0.23l0.14,0.23l0.13,0.24l0.13,0.24l0.12,0.24l0.12,0.25l0.11,0.25l0.11,0.25l0.1,0.26l0.1,0.26l0.09,0.26l0.09,0.27l0.09,0.27l0.08,0.27l0.07,0.27l0.07,0.28l0.06,0.28l0.06,0.28l0.06,0.28l0.05,0.29l7.68,47.36l27.52,0l1.72,0.03l1.7,0.11l1.68,0.17l1.66,0.23l1.64,0.3l1.62,0.37l1.59,0.42l1.56,0.48l1.54,0.55l1.51,0.6l1.48,0.66l1.45,0.71l1.41,0.77l1.38,0.82l1.35,0.87l1.31,0.92l1.27,0.97l1.23,1.01l1.19,1.06l1.15,1.11l1.11,1.15l1.06,1.19l1.01,1.23l0.97,1.27l0.92,1.31l0.87,1.35l0.82,1.38l0.77,1.41l0.71,1.45l0.66,1.48l0.6,1.51l0.55,1.54l0.48,1.56l0.42,1.59l0.37,1.62l0.3,1.64l0.23,1.66l0.17,1.68l0.11,1.7l0.03,1.72l0,62.72l-140.16,0l-1.58,0.03l-1.55,0.1l-1.54,0.16l-1.52,0.21l-1.5,0.28l-1.47,0.34l-1.45,0.39l-1.43,0.45l-1.4,0.5l-1.37,0.56l-1.34,0.61l-1.32,0.66l-1.28,0.7l-1.26,0.76l-1.22,0.8l-1.19,0.84l-1.15,0.89l-1.11,0.93l-1.08,0.98l-1.04,1.01l-1,1.05l-0.96,1.09l-0.92,1.12l-0.87,1.16l-0.83,1.19l-0.79,1.23l-0.73,1.25l-0.7,1.28l-0.64,1.31l-0.59,1.34l-0.54,1.36l-0.49,1.39l-0.44,1.41l-0.38,1.43l-0.32,1.45l-0.27,1.47l-0.21,1.48l-0.16,1.5l-0.09,1.52l-0.03,1.53l0,59.52l0.02,1.05l0.07,1.05l0.12,1.04l0.17,1.04l0.21,1.03l0.26,1.03l0.31,1.01l0.35,1.02l0.4,1.01l0.45,1l0.5,1l0.54,0.99l0.59,0.98l0.64,0.99l0.68,0.97l0.73,0.97l0.78,0.96l0.83,0.96l0.87,0.95l0.92,0.95l0.97,0.94l1.01,0.94l1.06,0.93l1.11,0.92l1.16,0.92l1.2,0.91l1.25,0.91l1.3,0.9l1.35,0.9l1.39,0.89l1.44,0.89l1.49,0.87l1.53,0.88l1.58,0.87l1.63,0.86l1.68,0.86l1.72,0.85l1.77,0.84l1.82,0.85l1.86,0.83l140.8,0l0,62.72l-0.03,1.72l-0.11,1.7l-0.17,1.68l-0.23,1.66l-0.3,1.64l-0.37,1.62l-0.42,1.59l-0.48,1.56l-0.55,1.54l-0.6,1.51l-0.66,1.48l-0.71,1.45l-0.77,1.41l-0.82,1.38l-0.87,1.35l-0.92,1.31l-0.97,1.27l-1.01,1.23l-1.06,1.19l-1.11,1.15l-1.15,1.11l-1.19,1.06l-1.23,1.01l-1.27,0.97l-1.31,0.92l-1.35,0.87l-1.38,0.82l-1.41,0.77l-1.45,0.71l-1.48,0.66l-1.51,0.6l-1.54,0.55l-1.56,0.48l-1.59,0.42l-1.62,0.37l-1.64,0.3l-1.66,0.23l-1.68,0.17l-1.7,0.11l-1.72,0.03l-375.68,0l-1.72,-0.03l-1.7,-0.11l-1.68,-0.17l-1.66,-0.23l-1.64,-0.3l-1.62,-0.37l-1.59,-0.42l-1.56,-0.48l-1.54,-0.55l-1.51,-0.6l-1.48,-0.66l-1.45,-0.71l-1.41,-0.77l-1.38,-0.82l-1.35,-0.87l-1.31,-0.92l-1.27,-0.97l-1.23,-1.01l-1.19,-1.06l-1.15,-1.11l-1.11,-1.15l-1.06,-1.19l-1.01,-1.23l-0.97,-1.27l-0.92,-1.31l-0.87,-1.35l-0.82,-1.38l-0.77,-1.41l-0.71,-1.45l-0.66,-1.48l-0.6,-1.51l-0.55,-1.54l-0.48,-1.56l-0.42,-1.59l-0.37,-1.62l-0.3,-1.64l-0.23,-1.66l-0.17,-1.68l-0.11,-1.7l-0.03,-1.72l0,-259.84l0.03,-1.72l0.11,-1.7l0.17,-1.68l0.23,-1.66l0.3,-1.64l0.37,-1.62l0.42,-1.59l0.48,-1.56l0.55,-1.54l0.6,-1.51l0.66,-1.48l0.71,-1.45l0.77,-1.41l0.82,-1.38l0.87,-1.35l0.92,-1.31l0.97,-1.27l1.01,-1.23l1.06,-1.19l1.11,-1.15l1.15,-1.11l1.19,-1.06l1.23,-1.01l1.27,-0.97l1.31,-0.92l1.35,-0.87l1.38,-0.82l1.41,-0.77l1.45,-0.71l1.48,-0.66l1.51,-0.6l1.54,-0.55l1.56,-0.48l1.59,-0.42l1.62,-0.37l1.64,-0.3l1.66,-0.23l1.68,-0.17l1.7,-0.11l1.72,-0.03l110.72,0l152.32,-80.64l0.24,-0.09l0.24,-0.1l0.25,-0.09l0.25,-0.08l0.25,-0.09l0.25,-0.08l0.25,-0.08l0.26,-0.07l0.25,-0.07l0.26,-0.07l0.26,-0.06l0.26,-0.06l0.26,-0.06l0.26,-0.05l0.26,-0.05l0.27,-0.05l0.26,-0.04l0.26,-0.03l0.27,-0.03l0.26,-0.03l0.26,-0.02l0.27,-0.02l0.26,-0.01l0.26,-0.01l0.27,0l0.26,0.01l0.26,0.01zm46.16,81.96l4.48,0l-4.48,-28.8l-12.16,2.56l12.16,26.24zm-29.44,-0.64l-23.68,-49.92l-95.36,49.92l119.04,0z"/>
        <linearGradient y2="1.03866" x2="0.88635" y1="0.153" x1="0.08721" id="gradientc1ontW8IqW">
            <stop stop-color="#d34915" offset="0%"/>
            <stop stop-color="#e18417" offset="30.15%"/>
            <stop stop-color="#f1ba16" offset="63.56%"/>
            <stop stop-color="#fbd915" offset="87.72999999999999%"/>
            <stop stop-color="#ffe514" offset="100%"/>
        </linearGradient>
    </defs>
    <g>
        <title>Layer 1</title>
        <g stroke="null" id="svg_1">
            <g stroke="null" id="svg_2">
                <g stroke="null" id="svg_3">
                    <use stroke="null" x="0" y="6.34169" transform="matrix(0.2089435148266396,0,0,0.22121311786920994,2,1.5971294857993854) " id="svg_4" fill="url(#gradientc1ontW8IqW)" xlink:href="#a38aFBteH"/>
                    <g stroke="null" id="svg_5">
                        <use stroke="#000000" x="0" y="6.34169" transform="matrix(0.2089435148266396,0,0,0.22121311786920994,2,1.5971294857993854) " id="svg_6" stroke-opacity="0" fill-opacity="0" xlink:href="#a38aFBteH"/>
                    </g>
                </g>
            </g>
        </g>
    </g>
</svg>

<?xml version="1.0" encoding="UTF-8" standalone="no"?>
<!DOCTYPE svg PUBLIC "-//W3C//DTD SVG 1.1//EN" "http://www.w3.org/Graphics/SVG/1.1/DTD/svg11.dtd">
<svg version="1.1" xmlns="http://www.w3.org/2000/svg" xmlns:xlink="http://www.w3.org/1999/xlink" preserveAspectRatio="xMidYMid meet" viewBox="0 0 458 425" width="458" height="425"><defs><path d="M311.6 0.02L311.86 0.03L312.12 0.05L312.38 0.08L312.64 0.11L312.89 0.15L313.15 0.2L313.4 0.25L313.65 0.31L313.9 0.37L314.15 0.44L314.4 0.52L314.64 0.61L314.88 0.7L315.12 0.8L315.36 0.9L315.6 1.01L315.84 1.12L316.08 1.24L316.31 1.36L316.55 1.49L316.78 1.62L317.02 1.75L317.25 1.89L317.48 2.03L317.71 2.18L317.93 2.33L318.16 2.49L318.38 2.65L318.6 2.81L318.81 2.98L319.03 3.15L319.23 3.32L319.44 3.5L319.64 3.68L319.84 3.87L320.03 4.06L320.23 4.25L320.41 4.44L320.59 4.64L320.77 4.84L320.94 5.05L321.11 5.26L321.27 5.47L321.43 5.68L321.58 5.9L321.72 6.12L321.86 6.35L321.99 6.57L322.12 6.8L322.24 7.03L322.35 7.26L322.46 7.5L322.56 7.74L334.08 30.78L365.44 23.1L365.68 23.05L365.92 23.01L366.17 22.98L366.42 22.95L366.67 22.92L366.92 22.9L367.17 22.88L367.43 22.87L367.68 22.86L367.94 22.86L368.2 22.86L368.46 22.87L368.72 22.88L368.98 22.9L369.24 22.92L369.51 22.95L369.77 22.98L370.03 23.01L370.3 23.05L370.56 23.1L370.82 23.15L371.09 23.21L371.35 23.27L371.61 23.33L371.88 23.4L372.14 23.47L372.4 23.55L372.66 23.64L372.92 23.73L373.18 23.82L373.44 23.92L373.69 24.02L373.95 24.13L374.2 24.24L374.45 24.36L374.7 24.48L374.95 24.61L375.2 24.74L375.44 24.88L375.68 25.02L375.92 25.17L376.15 25.32L376.38 25.47L376.6 25.63L376.82 25.8L377.03 25.97L377.24 26.14L377.45 26.32L377.65 26.5L377.84 26.69L378.03 26.88L378.21 27.08L378.39 27.28L378.57 27.48L378.74 27.69L378.91 27.9L379.07 28.11L379.22 28.33L379.37 28.55L379.52 28.78L379.66 29.01L379.8 29.24L379.93 29.48L380.06 29.72L380.18 29.96L380.3 30.21L380.41 30.46L380.52 30.71L380.62 30.97L380.72 31.23L380.81 31.49L380.9 31.76L380.99 32.03L381.07 32.3L381.14 32.57L381.21 32.85L381.27 33.13L381.33 33.41L381.39 33.69L381.44 33.98L389.12 81.34L416.64 81.34L418.36 81.37L420.06 81.48L421.74 81.65L423.4 81.88L425.04 82.18L426.66 82.55L428.25 82.97L429.81 83.45L431.35 84L432.86 84.6L434.34 85.26L435.79 85.97L437.2 86.74L438.58 87.56L439.93 88.43L441.24 89.35L442.51 90.32L443.74 91.33L444.93 92.39L446.08 93.5L447.19 94.65L448.25 95.84L449.26 97.07L450.23 98.34L451.15 99.65L452.02 101L452.84 102.38L453.61 103.79L454.32 105.24L454.98 106.72L455.58 108.23L456.13 109.77L456.61 111.33L457.03 112.92L457.4 114.54L457.7 116.18L457.93 117.84L458.1 119.52L458.21 121.22L458.24 122.94L458.24 185.66L318.08 185.66L316.5 185.69L314.95 185.79L313.41 185.95L311.89 186.16L310.39 186.44L308.92 186.78L307.47 187.17L306.04 187.62L304.64 188.12L303.27 188.68L301.93 189.29L300.61 189.95L299.33 190.65L298.07 191.41L296.85 192.21L295.66 193.05L294.51 193.94L293.4 194.87L292.32 195.85L291.28 196.86L290.28 197.91L289.32 199L288.4 200.12L287.53 201.28L286.7 202.47L285.91 203.7L285.18 204.95L284.48 206.23L283.84 207.54L283.25 208.88L282.71 210.24L282.22 211.63L281.78 213.04L281.4 214.47L281.08 215.92L280.81 217.39L280.6 218.87L280.44 220.37L280.35 221.89L280.32 223.42L280.32 282.94L280.34 283.99L280.41 285.04L280.53 286.08L280.7 287.12L280.91 288.15L281.17 289.18L281.48 290.19L281.83 291.21L282.23 292.22L282.68 293.22L283.18 294.22L283.72 295.21L284.31 296.19L284.95 297.18L285.63 298.15L286.36 299.12L287.14 300.08L287.97 301.04L288.84 301.99L289.76 302.94L290.73 303.88L291.74 304.82L292.8 305.75L293.91 306.67L295.07 307.59L296.27 308.5L297.52 309.41L298.82 310.31L300.17 311.21L301.56 312.1L303 312.99L304.49 313.86L306.02 314.74L307.6 315.61L309.23 316.47L310.91 317.33L312.63 318.18L314.4 319.02L316.22 319.87L318.08 320.7L458.88 320.7L458.88 383.42L458.85 385.14L458.74 386.84L458.57 388.52L458.34 390.18L458.04 391.82L457.67 393.44L457.25 395.03L456.77 396.59L456.22 398.13L455.62 399.64L454.96 401.12L454.25 402.57L453.48 403.98L452.66 405.36L451.79 406.71L450.87 408.02L449.9 409.29L448.89 410.52L447.83 411.71L446.72 412.86L445.57 413.97L444.38 415.03L443.15 416.04L441.88 417.01L440.57 417.93L439.22 418.8L437.84 419.62L436.43 420.39L434.98 421.1L433.5 421.76L431.99 422.36L430.45 422.91L428.89 423.39L427.3 423.81L425.68 424.18L424.04 424.48L422.38 424.71L420.7 424.88L419 424.99L417.28 425.02L41.6 425.02L39.88 424.99L38.18 424.88L36.5 424.71L34.84 424.48L33.2 424.18L31.58 423.81L29.99 423.39L28.43 422.91L26.89 422.36L25.38 421.76L23.9 421.1L22.45 420.39L21.04 419.62L19.66 418.8L18.31 417.93L17 417.01L15.73 416.04L14.5 415.03L13.31 413.97L12.16 412.86L11.05 411.71L9.99 410.52L8.98 409.29L8.01 408.02L7.09 406.71L6.22 405.36L5.4 403.98L4.63 402.57L3.92 401.12L3.26 399.64L2.66 398.13L2.11 396.59L1.63 395.03L1.21 393.44L0.84 391.82L0.54 390.18L0.31 388.52L0.14 386.84L0.03 385.14L0 383.42L0 123.58L0.03 121.86L0.14 120.16L0.31 118.48L0.54 116.82L0.84 115.18L1.21 113.56L1.63 111.97L2.11 110.41L2.66 108.87L3.26 107.36L3.92 105.88L4.63 104.43L5.4 103.02L6.22 101.64L7.09 100.29L8.01 98.98L8.98 97.71L9.99 96.48L11.05 95.29L12.16 94.14L13.31 93.03L14.5 91.97L15.73 90.96L17 89.99L18.31 89.07L19.66 88.2L21.04 87.38L22.45 86.61L23.9 85.9L25.38 85.24L26.89 84.64L28.43 84.09L29.99 83.61L31.58 83.19L33.2 82.82L34.84 82.52L36.5 82.29L38.18 82.12L39.88 82.01L41.6 81.98L152.32 81.98L304.64 1.34L304.88 1.25L305.12 1.15L305.37 1.06L305.62 0.98L305.87 0.89L306.12 0.81L306.37 0.73L306.63 0.66L306.88 0.59L307.14 0.52L307.4 0.46L307.66 0.4L307.92 0.34L308.18 0.29L308.44 0.24L308.71 0.19L308.97 0.15L309.23 0.12L309.5 0.09L309.76 0.06L310.02 0.04L310.29 0.02L310.55 0.01L310.81 0L311.08 0L311.34 0.01L311.6 0.02ZM357.76 81.98L362.24 81.98L357.76 53.18L345.6 55.74L357.76 81.98ZM328.32 81.34L304.64 31.42L209.28 81.34L328.32 81.34Z" id="a38aFBteH"></path><linearGradient id="gradientc1ontW8IqW" gradientUnits="userSpaceOnUse" x1="40.02" y1="65.03" x2="406.73" y2="441.45"><stop style="stop-color: #d34915;stop-opacity: 1" offset="0%"></stop><stop style="stop-color: #e18417;stop-opacity: 1" offset="30.15%"></stop><stop style="stop-color: #f1ba16;stop-opacity: 1" offset="63.56%"></stop><stop style="stop-color: #fbd915;stop-opacity: 1" offset="87.72999999999999%"></stop><stop style="stop-color: #ffe514;stop-opacity: 1" offset="100%"></stop></linearGradient></defs><g><g><g><use xlink:href="#a38aFBteH" opacity="1" fill="url(#gradientc1ontW8IqW)"></use><g><use xlink:href="#a38aFBteH" opacity="1" fill-opacity="0" stroke="#000000" stroke-width="1" stroke-opacity="0"></use></g></g></g></g></svg>
